X: 030690
T: Cronin's
S: "Play 50 Reels" (Armagh Pipers' Club)
Z: B.Black
L: 1/8
M: 4/4
R: reel
K: D
E | DFAd f3 e | d2 de fdAF | GAFG E3 F | GAFG EF G2 |
FDAD FGAd | BG G2 Bcde | fa a2 gecd | eddc d3 :|
e | fddc dfaf | gfed cdeg | f2 fa gfed | cAAG A2 DG |
FDAD FADG | BG G2 Bcde | fa a2 gecd | eddc d3 :|
